X:2002
T: Grips Exercise Scale to Note
O:Kevin Fraser
Z:Kevin Fraser
B: Logan's Complete Tutor
B: http://svenax.net/site/canntaireachd/6/
Q:1/4=120
K:HP
M:4/4
L:1/4
R:March
M:4/4
T: Grips from the scale to High A
|: {g}A{GdG}a {g}B{GdG}a |{g}c{GdG}a {g}d{GBG}e | {g}e{GdG}a {g}f{GdG}a |{a}g{GdG}a a{GdG}a :| 
w: hin drI     hio drI    | ho drI      ha rode    |  che drI     he drI  |  hi drI   I drI/darI  :|
T: Grips from the scale to High G
|: {g}A{GdG}g {g}B{GdG}g |{g}c{GdG}g {g}d{GBG}e | {g}e{GdG}g {g}f{GdG}g |{a}g{GdG}g a{GdG}g :| 
w: hin drvI     hio drvI    | ho drvI      ha rode    |  che drvI     he drvI  |  hi drvI   I drvI/darI  :|
T: Grips from the scale to F
|: {g}A{GdG}f {g}B{GdG}f |{g}c{GdG}f {g}d{GBG}e | {g}e{GdG}f {g}f{GdG}f |{a}g{GdG}f a{GdG}f :| 
w: hin drche     hio drche    | ho drche      ha rode    |  che drche     he drche  |  hi drche   I drche/darI  :|
T: Grips from the scale to E
|: {g}A{GdG}e {g}B{GdG}e |{g}c{GdG}e {g}d{GBG}e | {g}e{GdG}e {g}f{GdG}e |{a}g{GdG}e a{GdG}e :| 
w: hin dre     hio dre    | ho dre      ha rode    |  che dre     he dre  |  hi dre   I dre  :|
T: Grips from the scale to D
|: {g}A{GdG}d {g}B{GdG}d |{g}c{GdG}d {g}d{GBG}d | {g}e{GdG}d {g}f{GdG}d |{a}g{GdG}d a{GdG}d :| 
w: hin ademda   hio ademda | ho ademda   ha ademda  |  che ademda   he ademda |  hi ademda I ademda :|
w: hin dra   hio dra | ho dra   ha dra  |  che dra   he dra |  hi dra I dra :|
T: Grips from the scale to C
|: {g}A{GdG}d {g}B{GdG}d |{g}c{GdG}d {g}d{GBG}d | {g}e{GdG}d {g}f{GdG}d |{a}g{GdG}d a{GdG}d :| 
w: hin dro         hio dro | ho dro         ha dro  |  che dro         he dro |  hi dro I dro :|
T: Grips from the scale to B
|: {g}A{GdG}}B {g}B{GdG}B |{g}c{GdG}B {g}d{GBG}B | {g}e{GdG}B {g}f{GdG}B |{a}g{GdG}B a{GdG}B :| 
w: hin dro         hio dro | ho dro         ha dro  |  che dro         he dro |  hi dro I dro :|
T: Grips from the scale to A
| {g}A{GdG}A {g}B{GdG}A |{g}c{GdG}A {g}d{GBG}A | {g}e{GdG}A {g}f{GdG}A |{a}g{GdG}A a{GdG}A | 
T: Grips from the scale to G
|: {g}A{Gd}G {g}B{Gd}G |{g}c{Gd}G {g}d{GB}G | {g}e{Gd}G {g}f{Gd}G |{a}g{Gd}G a{Gd}G :| 
W:Note the alternative appearance of this movement (No trailing G gracenote since on G)
W:
W:I've re-named some of the lemluaths to follow the dr +note convention. e.g. bain => drem, bare => dre
W:
W:In piobaireachd a common movement is the dre (lemluath to E)
W: himdre,hinbare,hiobare,hobare,habare/harodde,chebare,hebare,hibare,ibare
W:
W: When the grip is played FROM D the B gracenote is substituted for the D gracenote
W: habain,hatro, hadro, hadada, hademda, habare

